X:335
T:Walker Street
T:The traveller
R:Reel
O:Ireland
B:Cole p.45
B:New England Fiddler's Repertoire
B:O'Neill's 1495
S:O'Neill's 1495
Z:Transcription:John B. Walsh, arr. chords:Mike Long
M:C|
L:1/8
K:G
"G"G2BG dGBG|"C"ABcd "D"cBAG|"G"Bdgd (3(efg) dB|"C"cBAG "D"FADF|\
"G"G2BG dGBG|"C"ABcd "D"cBAG|
"G"Bdgd "C"(3(efg) dB|"D"cAFA "G"G4:|\
|:"G"{a}g2dg Bgdg|"G"gabg "D"agef|"G"g2dg Bgdg|
"C"cBAG "D"FAD2|\
"G"{a}g2dg Bgdg|"G"gabg "D"agef|\
"G"gfga "C"gfed|[1 "D"egfa "G"g4:|[2 "D"(3(efg) fa gedB|]
